!!!!SEGMENT: pl-cz--i-74_kobierkowicz-jozef--patris-stupenda-bonitas.krn
!!!cenid: 17xx:918
!!!COM: Kobierkowicz, Józef
!!!COM-rismid: pe30017725
!!!CDT: <1721->=1735
!!!CNT: Polish
!!!OTL: Patris stupenda bonitas
!!!PDT:
!!!AGN: Sacred
!!!SMS-siglum: PL-CZ
!!!SMS-shelfmark: I-74
!!!SMS-shelfwork: W
!!!SMS-variant:
!!!SMS-altvar:
!!!NIFC-rismid: 300237572
!!!URL-scan: http://repozytorium.nifc.pl/skany/pl-cz-nut--i-74
!!!ONB-nifc:
!!!key: D
**kern	**fba	**kern	**dynam	**kern	**dynam	**kern	**text	**kern	**text	**kern	**text	**kern	**text	**kern	**kern	**kern
*group5	*	*group4	*	*group4	*	*group3	*	*group3	*	*group3	*	*group3	*	*group2	*group2	*group1
*part4	*part4	*part10	*part10	*part9	*part9	*part8	*part8	*part7	*part7	*part6	*part6	*part5	*part5	*part3	*part2	*part1
*staff4	*staff4	*staff10	*	*staff9	*	*staff8	*staff8	*staff7	*staff7	*staff6	*staff6	*staff5	*staff5	*staff3	*staff2	*staff1
*I"[Organo]	*	*I"Violino 2do	*	*I"Violino 1mo	*	*I"Baſso	*	*I"Tenore	*	*I"Alto.	*	*I"Canto	*	*I"Clarino 2do Ex D	*I"Clarino 1mo Ex D	*I"Fagotto.
*I'[Org]	*	*I'[Vl 2]	*	*I'[Vl 1]	*	*I'[B]	*	*I'[T]	*	*I'[A]	*	*I'[S]	*	*I'[Clno 2 in D]	*I'[Clno 1 in D]	*I'[Fag]
*Iorgan	*	*Ivioln	*	*Ivioln	*	*Ibass	*	*Itenor	*	*Ialto	*	*Isoprn	*	*Itromp	*Itromp	*Ifagot
*ICklav	*	*ICstr	*	*ICsrt	*	*ICvox	*	*ICvox	*	*ICvox	*	*ICvox	*	*ICbras	*ICbras	*ICww
*IGcont	*	*IGacmp	*	*IGacmp	*	*IGcoro	*	*IGcoro	*	*IGcoro	*	*IGcoro	*	*IGacmp	*IGacmp	*IGacmp
*clefF4	*	*clefG2	*	*clefG2	*	*clefF4	*	*clefC4	*	*clefC3	*	*clefC1	*	*clefG2	*clefG2	*clefF4
*	*	*	*	*	*	*	*	*	*	*	*	*	*	*ITrd-1c-2	*ITrd-1c-2	*
*k[f#c#]	*	*k[f#c#]	*	*k[f#c#]	*	*k[f#c#]	*	*k[f#c#]	*	*k[f#c#]	*	*k[f#c#]	*	*k[f#c#]	*k[f#c#]	*k[f#c#]
*D:	*	*D:	*	*D:	*	*D:	*	*D:	*	*D:	*	*D:	*	*D:	*D:	*D:
*M3/2	*	*M3/2	*	*M3/2	*	*M3/2	*	*M3/2	*	*M3/2	*	*M3/2	*	*M3/2	*M3/2	*M3/2
=1	=1	=1	=1	=1	=1	=1	=1	=1	=1	=1	=1	=1	=1	=1	=1	=1
*2\right	*	*	*	*	*	*	*	*	*	*	*	*	*	*	*	*2\right
!LO:TX:b:t=Patris Stupenda	!	!	!	!	!	!	!	!	!	!	!	!	!	!	!	!
!LO:TX:a:i:t=Solo	!	!	!	!	!	!	!	!	!	!	!	!LO:TX:a:t=22.	!	!	!	!LO:TX:b:t=Patris Studepnda
!LO:TX:a:t=|:problem	!	!	!	!	!	!	!	!	!	!	!	!	!	!	!	!
2D/	.	2d/	.	2d/	.	00.r	.	00.r	.	00.r	.	00.r	.	2d/	2d/	2D/
!LO:TX:a:t=|:problem	!	!	!	!	!	!	!	!	!	!	!	!	!	!	!	!
2D/	.	2d/	.	2d/	.	.	.	.	.	.	.	.	.	2d/	2d/	2D/
!LO:TX:a:t=|:problem	!	!	!	!LO:TX:b:t=Patris stupenda	!	!	!	!	!	!	!	!	!	!	!	!
2F#\	.	2f#/	.	2f#/	.	.	.	.	.	.	.	.	.	2f#/	2f#/	2F#\
=2	=2	=2	=2	=2	=2	=2-	=2	=2-	=2	=2-	=2	=2-	=2	=2	=2	=2
!LO:TX:a:t=|:problem	!	!LO:TX:b:t=Patris	!	!	!	!	!	!	!	!	!	!	!	!LO:TX:b:t=Patris	!LO:TX:b:t=Patris	!
1A	.	1a	.	1a	.	.	.	.	.	.	.	.	.	1a	1a	1A
*	*	*2\right	*	*2\right	*	*	*	*	*	*	*	*	*	*2\right	*2\right	*
!LO:TX:a:t=|:problem	!	!	!	!	!	!	!	!	!	!	!	!	!	!	!	!
2d\	.	2dd\	.	2dd\	.	.	.	.	.	.	.	.	.	2dd\	2dd\	2d\
=3	=3	=3	=3	=3	=3	=3-	=3	=3-	=3	=3-	=3	=3-	=3	=3	=3	=3
.	.	8qqdd/	.	8qqdd/	.	.	.	.	.	.	.	.	.	.	.	.
!LO:TX:a:t=|:problem	!	!	!	!	!	!	!	!	!	!	!	!	!	!	!	!
2.c#\	.	2.cc#\	.	2.cc#\	.	.	.	.	.	.	.	.	.	2.a/	2.a/	2.c#\
!LO:TX:a:t=|:problem	!	!	!	!	!	!	!	!	!	!	!	!	!	!	!	!
4B\	.	4b/	.	4b/	.	.	.	.	.	.	.	.	.	4a/	4a/	4B\
!LO:TX:a:t=|:problem	!	!	!	!	!	!	!	!	!	!	!	!	!	!	!	!
2A\	.	2a/	.	2a/	.	.	.	.	.	.	.	.	.	2a/	2a/	2A\
=4	=4	=4	=4	=4	=4	=4-	=4	=4-	=4	=4-	=4	=4-	=4	=4	=4	=4
!LO:TX:a:t=|:problem	!	!	!	!	!	!	!	!	!	!	!	!	!	!	!	!
2d\	.	2dd\	.	2dd\	.	.	.	.	.	.	.	.	.	2dd\	2dd\	2d\
!LO:TX:a:t=|:problem	!	!	!	!	!	!	!	!	!	!	!	!	!	!	!	!
2d\	.	2dd\	.	2dd\	.	.	.	.	.	.	.	.	.	2dd\	2dd\	2d\
!LO:TX:a:t=|:problem	!	!	!	!	!	!	!	!	!	!	!	!	!	!	!	!
2A\	.	2a/	.	2a/	.	.	.	.	.	.	.	.	.	2a/	2a/	2A\
=5	=5	=5	=5	=5	=5	=5-	=5	=5-	=5	=5-	=5	=5-	=5	=5	=5	=5
!LO:TX:a:t=|:problem	!	!	!	!	!	!	!	!	!	!	!	!	!	!	!	!
1F#	.	1f#	.	1f#	.	00.r	.	00.r	.	00.r	.	00.r	.	1f#	1f#	1F#
!LO:TX:a:t=|:problem	!	!	!	!	!	!	!	!	!	!	!	!	!	!	!	!
2D\	.	2d/	.	2d/	.	.	.	.	.	.	.	.	.	2d/	2d/	2D/
=6	=6	=6	=6	=6	=6	=6-	=6	=6-	=6	=6-	=6	=6-	=6	=6	=6	=6
!LO:TX:a:t=|:problem	!	!	!	!	!	!	!	!	!	!	!	!	!	!	!	!
2.A\	.	2.a/	.	2.a/	.	.	.	.	.	.	.	.	.	2.a/	2.a/	2.A\
!LO:TX:a:t=|:problem	!	!	!	!	!	!	!	!	!	!	!	!	!	!	!	!
4A\	.	4a/	.	4a/	.	.	.	.	.	.	.	.	.	4a/	4a/	4A\
!LO:TX:a:t=|:problem	!	!	!	!	!	!	!	!	!	!	!	!	!	!	!	!
2D/	.	2d/	.	2d/	.	.	.	.	.	.	.	.	.	2d/	2d/	2D/
=7	=7	=7	=7	=7	=7	=7-	=7	=7-	=7	=7-	=7	=7-	=7	=7	=7	=7
!	!	!	!	!	!	!	!	!	!	!	!	!	!	!LO:TX:a:t=7	!LO:TX:a:t=7	!
2D/	.	4dd\	.	4dd\	.	.	.	.	.	.	.	.	.	00.r	00.r	2D/
.	.	4cc#\	.	4ee\	.	.	.	.	.	.	.	.	.	.	.	.
2r	.	4dd\	.	4ff#\	.	.	.	.	.	.	.	.	.	.	.	2r
.	.	4ee\	.	4gg\	.	.	.	.	.	.	.	.	.	.	.	.
2r	.	4ff#\	.	4aa\	.	.	.	.	.	.	.	.	.	.	.	2r
.	.	4gg\	.	4bb\	.	.	.	.	.	.	.	.	.	.	.	.
=8	=8	=8	=8	=8	=8	=8-	=8	=8-	=8	=8-	=8	=8-	=8	=8-	=8-	=8
2D/	.	4ff#\	.	4aa\	.	.	.	.	.	.	.	.	.	.	.	2D/
.	.	4gg\	.	4bb\	.	.	.	.	.	.	.	.	.	.	.	.
2r	.	2e/	.	2g/	.	.	.	.	.	.	.	.	.	.	.	2r
2r	.	2d/	.	2f#/	.	.	.	.	.	.	.	.	.	.	.	2r
=9	=9	=9	=9	=9	=9	=9-	=9	=9-	=9	=9-	=9	=9-	=9	=9-	=9-	=9
!	!	!LO:N:vis=4	!	!	!	!	!	!	!	!	!	!	!	!	!	!
2C#/	6	2r	.	4a/	.	00.r	.	00.r	.	00.r	.	00.r	.	.	.	2C#/
.	.	.	.	4b/	.	.	.	.	.	.	.	.	.	.	.	.
2r	.	4a/	.	4cc#\	.	.	.	.	.	.	.	.	.	.	.	2r
.	.	4b/	.	4dd\	.	.	.	.	.	.	.	.	.	.	.	.
2r	.	4cc#\	.	4ee\	.	.	.	.	.	.	.	.	.	.	.	2r
!	!	!LO:TX:a:t=6:color=gray	!	!	!	!	!	!	!	!	!	!	!	!	!	!
.	.	4dd\	.	4ff#\	.	.	.	.	.	.	.	.	.	.	.	.
=10	=10	=10	=10	=10	=10	=10-	=10	=10-	=10	=10-	=10	=10-	=10	=10-	=10-	=10
2C#/	6 5	4ee\	.	4gg\	.	.	.	.	.	.	.	.	.	.	.	2C#/
.	.	4ff#\	.	4aa\	.	.	.	.	.	.	.	.	.	.	.	.
!	!	!	!	!LO:LB:g=original	!	!	!	!	!	!	!	!	!	!	!	!
2r	.	2d/	.	2f#/	.	.	.	.	.	.	.	.	.	.	.	2r
2r	.	2c#/	.	2e/	.	.	.	.	.	.	.	.	.	.	.	2r
!LO:LB:g=original	!	!	!	!	!	!	!	!	!	!	!	!	!	!	!	!LO:LB:g=original
=11	=11	=11	=11	=11	=11	=11-	=11	=11-	=11	=11-	=11	=11-	=11	=11-	=11-	=11
2D/	.	4dd\	.	4dd\	.	.	.	.	.	.	.	.	.	0.r	0.r	2D/
.	.	8ff#\L	.	8ff#\L	.	.	.	.	.	.	.	.	.	.	.	.
.	.	8dd\J	.	8dd\J	.	.	.	.	.	.	.	.	.	.	.	.
!	!	!LO:LB:g=original	!	!	!	!	!	!	!	!	!	!	!	!	!	!
2r	.	2a/	.	2a/	.	.	.	.	.	.	.	.	.	.	.	2r
2r	.	2aa\	.	2aa\	.	.	.	.	.	.	.	.	.	.	.	2r
=12	=12	=12	=12	=12	=12	=12-	=12	=12-	=12	=12-	=12	=12-	=12	=12-	=12-	=12
2D/	.	4dd\	.	4dd\	.	.	.	.	.	.	.	.	.	.	.	2D/
.	.	8ff#\L	.	8ff#\L	.	.	.	.	.	.	.	.	.	.	.	.
.	.	8dd\J	.	8dd\J	.	.	.	.	.	.	.	.	.	.	.	.
2r	.	2a/	.	2a/	.	.	.	.	.	.	.	.	.	.	.	2r
2r	.	2gg\	.	2gg\	.	.	.	.	.	.	.	.	.	.	.	2r
=13	=13	=13	=13	=13	=13	=13-	=13	=13-	=13	=13-	=13	=13-	=13	=13-	=13-	=13
2D/	.	4dd\	.	4ff#\	.	00.r	.	00.r	.	00.r	.	00.r	.	1.r	1.r	2D/
.	.	8cc#\L	.	8ee\L	.	.	.	.	.	.	.	.	.	.	.	.
.	.	8b\J	.	8dd\J	.	.	.	.	.	.	.	.	.	.	.	.
2r	.	4a/	.	4cc#\	.	.	.	.	.	.	.	.	.	.	.	2r
.	.	4g/	.	4b/	.	.	.	.	.	.	.	.	.	.	.	.
2r	.	4f#/	.	4a/	.	.	.	.	.	.	.	.	.	.	.	2r
.	.	4e/	.	4g/	.	.	.	.	.	.	.	.	.	.	.	.
=14	=14	=14	=14	=14	=14	=14-	=14	=14-	=14	=14-	=14	=14-	=14	=14	=14	=14
2D/	.	2d/	.	2f#/	.	.	.	.	.	.	.	.	.	4dd\	4ff#\	2D/
.	.	.	.	.	.	.	.	.	.	.	.	.	.	4ff#\	4aa\	.
2r	.	2r	.	2r	.	.	.	.	.	.	.	.	.	4ff#\	4aa\	2r
.	.	.	.	.	.	.	.	.	.	.	.	.	.	8ee\L	8gg\L	.
.	.	.	.	.	.	.	.	.	.	.	.	.	.	8dd\J	8ff#\J	.
2r	.	2r	.	2r	.	.	.	.	.	.	.	.	.	2ee\	2gg\	2r
=15	=15	=15	=15	=15	=15	=15-	=15	=15-	=15	=15-	=15	=15-	=15	=15	=15	=15
!	!	!	!	!	!	!	!	!	!	!	!	!	!	!LO:TX:a:t=1	!LO:TX:a:t=1	!
2AA/	.	4c#/	.	4e/	.	.	.	.	.	.	.	.	.	1.r	1.r	2AA/
.	.	4e/	.	4g/	.	.	.	.	.	.	.	.	.	.	.	.
2r	.	4e/	.	4g/	.	.	.	.	.	.	.	.	.	.	.	2r
.	.	8d/L	.	8f#/L	.	.	.	.	.	.	.	.	.	.	.	.
.	.	8c#/J	.	8e/J	.	.	.	.	.	.	.	.	.	.	.	.
2r	.	2d/	.	2f#/	.	.	.	.	.	.	.	.	.	.	.	2r
=16	=16	=16	=16	=16	=16	=16-	=16	=16-	=16	=16-	=16	=16-	=16	=16	=16	=16
!	!	!LO:TX:a:t=2	!	!LO:TX:a:t=2	!	!	!	!	!	!	!	!	!	!	!	!
2D/	.	0.r	.	0.r	.	.	.	.	.	.	.	.	.	4dd\	4ff#\	2D/
.	.	.	.	.	.	.	.	.	.	.	.	.	.	4ff#\	4aa\	.
!	!	!	!	!	!	!	!	!	!	!	!	!	!	!LO:TX:a:t=9:color=gray	!	!
2r	.	.	.	.	.	.	.	.	.	.	.	.	.	4ff#\	4aa\	2r
.	.	.	.	.	.	.	.	.	.	.	.	.	.	8ee\L	8gg\L	.
.	.	.	.	.	.	.	.	.	.	.	.	.	.	8dd\J	8ff#\J	.
!	!	!	!	!	!	!	!	!	!	!	!	!	!	!	!LO:LB:g=original	!
2r	.	.	.	.	.	.	.	.	.	.	.	.	.	8gg\L	8bb\L	2r
.	.	.	.	.	.	.	.	.	.	.	.	.	.	8ff#\	8aa\	.
.	.	.	.	.	.	.	.	.	.	.	.	.	.	8ee\	8gg\	.
.	.	.	.	.	.	.	.	.	.	.	.	.	.	8dd\J	8ff#\J	.
!	!	!	!	!	!	!	!	!	!	!	!	!	!	!LO:LB:g=original	!	!
=17	=17	=17-	=17	=17-	=17	=17-	=17	=17-	=17	=17-	=17	=17-	=17	=17	=17	=17
2AA/	.	.	.	.	.	00.r	.	00.r	.	00.r	.	00.r	.	4a/	4ee\	2AA/
.	.	.	.	.	.	.	.	.	.	.	.	.	.	4ee\	4gg\	.
2r	.	.	.	.	.	.	.	.	.	.	.	.	.	4ee\	4gg\	2r
.	.	.	.	.	.	.	.	.	.	.	.	.	.	8dd\L	8ff#\L	.
.	.	.	.	.	.	.	.	.	.	.	.	.	.	8a\J	8ee\J	.
2r	.	.	.	.	.	.	.	.	.	.	.	.	.	8ff#\L	8aa\L	2r
.	.	.	.	.	.	.	.	.	.	.	.	.	.	8ee\	8gg\	.
.	.	.	.	.	.	.	.	.	.	.	.	.	.	8dd\	8ff#\	.
.	.	.	.	.	.	.	.	.	.	.	.	.	.	8a\J	8ee\J	.
=18	=18	=18-	=18	=18-	=18	=18-	=18	=18-	=18	=18-	=18	=18-	=18	=18	=18	=18
2D/	.	2r	.	2r	.	.	.	.	.	.	.	.	.	4f#/	4dd\	2D/
.	.	.	.	.	.	.	.	.	.	.	.	.	.	4ee\	4gg\	.
2r	.	2r	.	2r	.	.	.	.	.	.	.	.	.	2dd\	2ff#\	2r
2r	.	4r	.	4r	.	.	.	.	.	.	.	.	.	2a/	2ee\	2r
.	.	4c#/	.	4e/	.	.	.	.	.	.	.	.	.	.	.	.
=19	=19	=19	=19	=19	=19	=19-	=19	=19-	=19	=19-	=19	=19-	=19	=19	=19	=19
2D/	.	8d/L	.	8d/L	.	.	.	.	.	.	.	.	.	2dd\	2ff#\	2D/
.	.	8e/	.	8e/	.	.	.	.	.	.	.	.	.	.	.	.
.	.	8f#/	.	8f#/	.	.	.	.	.	.	.	.	.	.	.	.
.	.	8g/J	.	8g/J	.	.	.	.	.	.	.	.	.	.	.	.
2r	.	4a/	.	4a/	.	.	.	.	.	.	.	.	.	2r	2r	2r
.	.	8b\L	.	8b\L	.	.	.	.	.	.	.	.	.	.	.	.
.	.	8cc#\J	.	8cc#\J	.	.	.	.	.	.	.	.	.	.	.	.
2r	.	2dd\	.	2dd\	.	.	.	.	.	.	.	.	.	2r	2r	2r
=20	=20	=20	=20	=20	=20	=20-	=20	=20-	=20	=20-	=20	=20-	=20	=20	=20	=20
8D\L	x 3:	4dd\	.	4ee\	.	.	.	.	.	.	.	.	.	4dd\	4dd\	8D\L
8E\	.	.	.	.	.	.	.	.	.	.	.	.	.	.	.	8E\
8F#\	.	4a/	.	4a/	.	.	.	.	.	.	.	.	.	4a/	4a/	8F#\
8G\J	.	.	.	.	.	.	.	.	.	.	.	.	.	.	.	8G\J
!	!	!	!	!LO:LB:g=original	!	!	!	!	!	!	!	!	!	!	!	!
4A\	.	2f#/	.	2f#/	.	.	.	.	.	.	.	.	.	2f#/	2f#/	4A\
8B\L	.	.	.	.	.	.	.	.	.	.	.	.	.	.	.	8B\L
8c#\J	.	.	.	.	.	.	.	.	.	.	.	.	.	.	.	8c#\J
2d\	.	2d/	.	2d/	.	.	.	.	.	.	.	.	.	2d/	2d/	2d\
=21	=21	=21	=21	=21	=21	=21-	=21	=21-	=21	=21-	=21	=21-	=21	=21	=21	=21
4D\	8 x	4d/	.	4dd\	.	0.r	.	0.r	.	0.r	.	0.r	.	4d/	4dd\	4D\
4E\	8 x	4e/	.	4ee\	.	.	.	.	.	.	.	.	.	4r	4ee\	4E\
4F#\	8 x	4f#/	.	4ff#\	.	.	.	.	.	.	.	.	.	4f#/	4ff#\	4F#\
4D\	8 x	4d/	.	4dd\	.	.	.	.	.	.	.	.	.	4r	4dd\	4D\
4F#\	8 x	4f#/	.	4ff#\	.	.	.	.	.	.	.	.	.	4f#/	4ff#\	4F#\
4G\	8 x	4g/	.	4gg\	.	.	.	.	.	.	.	.	.	4r	4gg\	4G\
!	!	!	!	!	!	!	!	!	!	!	!	!	!	!	!	!LO:LB:g=original
=22	=22	=22	=22	=22	=22	=22-	=22	=22-	=22	=22-	=22	=22-	=22	=22	=22	=22
2.A\	8 x	1a	.	2.aa\	.	.	.	.	.	.	.	.	.	2.a/	2.aa\	2.A\
4FF#/	8 x	.	.	4a/	.	.	.	.	.	.	.	.	.	4a/	4a/	4FF#/
2D\	8 x	2d/	.	2dd\	.	.	.	.	.	.	.	.	.	2d/	2dd\	2D/
!LO:LB:g=original	!	!LO:LB:g=original	!	!	!	!	!	!	!	!	!	!	!	!	!	!
=23	=23	=23	=23	=23	=23	=23	=23	=23	=23	=23	=23	=23	=23	=23	=23	=23
*	*	*	*	*	*	*2\right	*	*	*	*2\right	*	*	*	*	*	*
!LO:TX:b:i:t=Tutti	!	!	!	!	!	!	!	!	!	!	!	!	!	!	!	!
2D/	8 x	2d/	.	2dd\	.	2D/	Pa-	2D/	Pa-	2d\	Pa-	2d/	Pa-	2d/	2dd\	2D/
2D/	8 x	2d/	.	2dd\	.	2D/	-tris	2D/	-tris	2d\	-tris	2d/	-tris	2d/	2dd\	2D/
2F#\	8 x	2f#/	.	2ff#\	.	2F#\	stu-	2F#/	stu-	2f#\	stu-	2f#/	stu-	2f#/	2ff#\	2F#\
=24	=24	=24	=24	=24	=24	=24	=24	=24	=24	=24	=24	=24	=24	=24	=24	=24
1A	8 x	1a	.	1aa	.	1A	-pen-	1A	-pen-	1a	-pen-	1a	-pen-	1a	1aa	1A
*	*	*	*	*	*	*	*	*2\right	*	*	*	*2\right	*	*	*	*
2d\	8 x	2dd\	.	2ddd\	.	2d\	-da	2d\	-da	2d\	-da	2dd\	-da	2dd\	2ddd\	2d\
=25	=25	=25	=25	=25	=25	=25	=25	=25	=25	=25	=25	=25	=25	=25	=25	=25
.	.	8qqdd/	.	.	.	.	.	8qqd/	.	8qqd/	.	8qqdd/	.	.	.	.
2.c#\	8 x	2.cc#\	.	2.ccc#\	.	2.c#\	bo-	2.c#\	bo-	2.c#/	bo-	2.cc#\	bo-	2r	2.ccc#\	2.c#\
.	.	.	.	.	.	.	.	.	.	.	.	.	.	2r	.	.
4B\	8 x	4b/	.	4bb\	.	4B\	-ni-	4B\	-ni-	4B/	-ni-	4b\	-ni-	.	4bb\	4B\
2A\	8 x	2a/	.	2aa\	.	2A\	-tas	2A/	-tas	2A/	-tas	2a\	-tas	2a/	2aa\	2A\
!	!	!	!	!	!	!	!	!	!	!	!	!	!	!	!LO:LB:g=original	!
=26	=26	=26	=26	=26	=26	=26	=26	=26	=26	=26	=26	=26	=26	=26	=26	=26
2d\	8 x	2dd\	.	2ddd\	.	2d\	im-	2d\	im-	2d\	im-	2dd\	im-	2dd\	2ddd\	2d\
2d\	8 x	2dd\	.	2ddd\	.	2d\	-men-	2d\	-men-	2d\	-men-	2dd\	-men-	2dd\	2ddd\	2d\
!	!	!	!	!	!	!LO:TX:a:t=4	!	!LO:TX:a:t=3	!	!	!	!	!	!	!	!
2A\	8 x	2a/	.	2aa\	.	2A\	-sa	2A/	-sa	2A/	-sa	2a\	-sa	2a/	2aa\	2A\
!	!	!	!	!	!	!	!	!	!	!	!	!	!	!LO:LB:g=original	!	!
=27	=27	=27	=27	=27	=27	=27	=27	=27	=27	=27	=27	=27	=27	=27	=27	=27
1F#	8 x	1f#	.	1ff#	.	1F#	ver-	1F#	ver-	1f#	ver-	1f#	ver-	1f#	1ff#	1F#
2D/	8 x	2d/	.	2dd\	.	2D/	-bi	2D/	-bi	2d\	-bi	2d/	-bi	2d/	2dd\	2D/
!	!	!	!	!	!	!LO:LB:g=original	!	!LO:LB:g=original	!	!	!	!	!	!	!	!
=28	=28	=28	=28	=28	=28	=28	=28	=28	=28	=28	=28	=28	=28	=28	=28	=28
2.A\	8 x	1a	.	2.aa\	.	2.A\	cha-	2.A/	cha-	2.a\	cha-	2.a\	cha-	2.a/	2.aa\	2.A\
4A\	8 x	.	.	4aa\	.	4A\	-ri-	4A/	-ri-	4a\	-ri-	4a\	-ri-	4a/	4aa\	4A\
2D/	8 x	2d/	.	2dd\	.	2D/	-tas	2D/	-tas	2d\	-tas	2d/	-tas	2d/	2dd\	2D/
!	!	!	!	!	!	!	!	!	!	!	!	!LO:SIC:v:t=custos a	!	!	!	!
!	!	!	!	!	!	!	!	!	!	!LO:LB:g=original	!	!LO:LB:g=original	!	!	!	!
=29	=29	=29	=29	=29	=29	=29	=29	=29	=29	=29	=29	=29	=29	=29	=29	=29
2D/	x 3.	4dd\	.	4dd\	.	2D/	Pa-	2d\	Pa-	2a\	Pa-	2a\	Pa-	4dd\	4dd\	2D/
.	.	8ff#\L	.	8ff#\L	.	.	.	.	.	.	.	.	.	4dd\	8ff#\L	.
.	.	8dd\J	.	8dd\J	.	.	.	.	.	.	.	.	.	.	8dd\J	.
2D/	.	2a/	.	2a/	.	2D/	-tris	2A/	-tris	2f#\	-tris	2dd\	-tris	2a/	2a/	2D/
2r	.	2ff#\	.	2aa\	.	2r	.	2r	.	2r	.	2r	.	2gg\	2aa\	2r
=30	=30	=30	=30	=30	=30	=30-	=30	=30-	=30	=30	=30	=30-	=30	=30	=30	=30
!LO:TX:b:i:t=Solo	!	!	!	!	!	!LO:TX:a:t=1	!	!LO:TX:a:t=1	!	!LO:TX:a:t=1	!	!LO:TX:a:t=1	!	!	!	!
2D/	.	4ff#\	.	4aa\	.	1.r	.	1.r	.	1.r	.	1.r	.	4gg\	4aa\	2D/
.	.	2ee\	.	2gg\	.	.	.	.	.	.	.	.	.	2ff#\	2gg\	.
2r	.	.	.	.	.	.	.	.	.	.	.	.	.	.	.	2r
.	.	2dd\	.	2ff#\	.	.	.	.	.	.	.	.	.	2ee\	2ff#\	.
2r	.	.	.	.	.	.	.	.	.	.	.	.	.	.	.	2r
.	.	4cc#\	.	4ee\	.	.	.	.	.	.	.	.	.	4a/	4ee\	.
!	!	!	!	!LO:LB:g=original	!	!	!	!	!	!	!	!	!	!	!	!
=31	=31	=31	=31	=31	=31	=31	=31	=31	=31	=31	=31	=31	=31	=31	=31	=31
!LO:TX:b:i:t=Tutti	!	!	!	!	!	!	!	!	!	!	!	!	!	!	!	!
2A\	.	4a/	.	4a/	.	2A\	Pa-	2c#\	Pa-	2e\	Pa-	2ee\	Pa-	4a/	4a/	2A\
.	.	8cc#/L	.	8cc#\L	.	.	.	.	.	.	.	.	.	8a/L	8a/L	.
.	.	8a/J	.	8a\J	.	.	.	.	.	.	.	.	.	8a/J	8a/J	.
2A\	.	2a/	.	2a/	.	2A\	-tris	2e\	-tris	2a\	-tris	2cc#\	-tris	2a/	2a/	2A\
2r	.	2ee\	.	2gg\	.	2r	.	2r	.	2r	.	2r	.	2ee\	2gg\	2r
=32	=32	=32	=32	=32	=32	=32-	=32	=32-	=32	=32-	=32	=32-	=32	=32	=32	=32
!LO:TX:b:i:t=Solo	!	!	!	!	!	!	!	!	!	!	!	!	!	!	!	!
2A\	7 x	4ee\	.	4gg\	.	0.r	.	0.r	.	00.r	.	00.r	.	4ee\	4gg\	2A\
.	.	2dd\	.	2ff#\	.	.	.	.	.	.	.	.	.	2dd\	2ff#\	.
2r	.	.	.	.	.	.	.	.	.	.	.	.	.	.	.	2r
.	.	2cc#\	.	2ee\	.	.	.	.	.	.	.	.	.	2a/	2ee\	.
2r	.	.	.	.	.	.	.	.	.	.	.	.	.	.	.	2r
.	.	4b/	.	4dd\	.	.	.	.	.	.	.	.	.	4r	4dd\	.
=33	=33	=33	=33	=33	=33	=33-	=33	=33-	=33	=33-	=33	=33-	=33	=33	=33	=33
2A\	x 3	4a/	.	4cc#\	.	.	.	.	.	.	.	.	.	2r	2r	2A\
.	.	4b/	.	4dd\	.	.	.	.	.	.	.	.	.	.	.	.
2r	.	4cc#\	.	4ee\	.	.	.	.	.	.	.	.	.	4a/	4ee\	2r
.	.	4ee\	.	4gg\	.	.	.	.	.	.	.	.	.	4ee\	4gg\	.
2D/	.	2dd\	.	2ff#\	.	.	.	.	.	.	.	.	.	2dd\	2ff#\	2D/
!LO:LB:g=original	!	!LO:LB:g=original	!	!	!	!	!	!	!	!	!	!	!	!	!	!LO:LB:g=original
=34	=34	=34	=34	=34	=34	=34	=34	=34	=34	=34-	=34	=34-	=34	=34	=34	=34
!LO:TX:b:t=Ten&colon;Baſ	!	!	!LO:DY:b:t=piano	!	!LO:DY:b:t=Piano	!	!	!	!	!	!	!	!	!LO:TX:a:t=16	!	!
2D/	.	2dd\	p	2dd\	p	2D/	Pa-	2d\	Pa-	.	.	.	.	00.r	00.r	2D/
2r	.	2a/	.	2a/	.	2AA/	-tris	2A/	-tris	.	.	.	.	.	.	2r
2r	.	2ff#\	.	2aa\	.	2A\	stu-	2f#\	stu-	.	.	.	.	.	.	2r
=35	=35	=35	=35	=35	=35	=35	=35	=35	=35	=35-	=35	=35-	=35	=35-	=35-	=35
2D/	.	4ff#\	.	4aa\	.	4A\	-pen-	4f#\	-pen-	.	.	.	.	.	.	2D/
.	.	4ee\	.	4gg\	.	4G\	-da	4e\	-da	.	.	.	.	.	.	.
2r	.	4ee\	.	4gg\	.	4G\	bo-	4e\	bo-	.	.	.	.	.	.	2r
.	.	4dd\	.	4ff#\	.	4F#\	-ni-	4d\	-ni-	.	.	.	.	.	.	.
2r	.	2dd\	.	2ff#\	.	2F#\	-tas	2d\	-tas	.	.	.	.	.	.	2r
!	!	!	!	!	!	!LO:LB:g=original	!	!LO:LB:g=original	!	!	!	!	!	!	!	!
=36	=36	=36	=36	=36	=36	=36	=36	=36	=36	=36	=36	=36	=36	=36-	=36-	=36
!LO:TX:b:t=Canto Alto	!	!	!	!	!	!	!	!	!	!	!	!	!	!	!	!
2D/	.	2d/	.	2d/	.	00.r	.	00.r	.	2d\	im-	2dd\	im-	.	.	2D/
2r	.	2a/	.	2a/	.	.	.	.	.	2a\	-men-	2a\	-men-	.	.	2r
2r	.	2f#/	.	2a/	.	.	.	.	.	2a\	-sa	2ff#\	-sa	.	.	2r
=37	=37	=37	=37	=37	=37	=37-	=37	=37-	=37	=37	=37	=37	=37	=37-	=37-	=37
2D/	.	4f#/	.	4a/	.	.	.	.	.	4a\	ver-	4ff#\	ver-	.	.	2D/
.	.	4e/	.	4g/	.	.	.	.	.	4g\	-bi	4ee\	-bi	.	.	.
2r	.	4e/	.	4g/	.	.	.	.	.	4a\	cha-	4ee\	cha-	.	.	2r
.	.	4d/	.	4f#/	.	.	.	.	.	4f#\	-ri-	4dd\	-ri-	.	.	.
2r	.	2d/	.	2f#/	.	.	.	.	.	2f#\	-tas	2dd\	-tas	.	.	2r
=38	=38	=38	=38	=38	=38	=38-	=38	=38-	=38	=38	=38	=38	=38	=38-	=38	=38
!LO:TX:b:t=clar.solo	!	!	!LO:DY:a:t=Forte	!	!LO:DY:a:t=Forte	!	!	!	!	!	!	!	!	!	!LO:TX:a:i:t=Solo.	!
[>1.D	.	1.d [>1.a	f	1.d [>1.a	f	.	.	.	.	00.r	.	00.r	.	00.r	8dd\L	[>1.D
.	.	.	.	.	.	.	.	.	.	.	.	.	.	.	8ee\	.
.	.	.	.	.	.	.	.	.	.	.	.	.	.	.	8ff#\	.
.	.	.	.	.	.	.	.	.	.	.	.	.	.	.	8gg\J	.
!	!	!	!	!	!	!	!	!	!	!	!	!	!	!	!LO:LB:g=original	!
.	.	.	.	.	.	.	.	.	.	.	.	.	.	.	2aa\	.
.	.	.	.	.	.	.	.	.	.	.	.	.	.	.	2aa\	.
=39	=39	=39	=39	=39	=39	=39-	=39	=39-	=39	=39-	=39	=39-	=39	=39-	=39	=39
1.D_>	.	1.d 1.a_>	.	1.d 1.a_>	.	.	.	.	.	.	.	.	.	.	4aa\	1.D_>
.	.	.	.	.	.	.	.	.	.	.	.	.	.	.	4aa\	.
.	.	.	.	.	.	.	.	.	.	.	.	.	.	.	2ff#\	.
.	.	.	.	.	.	.	.	.	.	.	.	.	.	.	2dd\	.
=40	=40	=40	=40	=40	=40	=40-	=40	=40-	=40	=40-	=40	=40-	=40	=40-	=40	=40
1.D_>	.	1.d 1.a_>	.	1.d 1.a_>	.	00.r	.	00.r	.	.	.	.	.	.	4ff#\	1.D_>
.	.	.	.	.	.	.	.	.	.	.	.	.	.	.	8gg\L	.
.	.	.	.	.	.	.	.	.	.	.	.	.	.	.	8aa\J	.
.	.	.	.	.	.	.	.	.	.	.	.	.	.	.	4ff#\	.
.	.	.	.	.	.	.	.	.	.	.	.	.	.	.	4dd\	.
.	.	.	.	.	.	.	.	.	.	.	.	.	.	.	2ddd\	.
=41	=41	=41	=41	=41	=41	=41-	=41	=41-	=41	=41-	=41	=41-	=41	=41-	=41	=41
1.D_>	.	1.d 1.a_>	.	1.d 1.a_>	.	.	.	.	.	.	.	.	.	.	4ddd\	1.D_>
.	.	.	.	.	.	.	.	.	.	.	.	.	.	.	4aa\	.
.	.	.	.	.	.	.	.	.	.	.	.	.	.	.	4ddd\	.
.	.	.	.	.	.	.	.	.	.	.	.	.	.	.	4aa\	.
.	.	.	.	.	.	.	.	.	.	.	.	.	.	.	8ddd\L	.
.	.	.	.	.	.	.	.	.	.	.	.	.	.	.	8ccc#\	.
.	.	.	.	.	.	.	.	.	.	.	.	.	.	.	8bb\	.
.	.	.	.	.	.	.	.	.	.	.	.	.	.	.	8aa\J	.
=42	=42	=42	=42	=42	=42	=42-	=42	=42-	=42	=42-	=42	=42-	=42	=42-	=42	=42
1.D_>	.	1.d 1.a_>	.	1.d 1.a_>	.	.	.	.	.	00.r	.	00.r	.	00.r	4ddd\	1.D_>
.	.	.	.	.	.	.	.	.	.	.	.	.	.	.	4aa\	.
.	.	.	.	.	.	.	.	.	.	.	.	.	.	.	4ddd\	.
.	.	.	.	.	.	.	.	.	.	.	.	.	.	.	4aa\	.
.	.	.	.	.	.	.	.	.	.	.	.	.	.	.	4ddd\	.
.	.	.	.	.	.	.	.	.	.	.	.	.	.	.	4fff#\	.
=43	=43	=43	=43	=43	=43	=43-	=43	=43-	=43	=43-	=43	=43-	=43	=43-	=43	=43
1.D_>	.	1.d 1.a_>	.	1.d 1.a_>	.	.	.	.	.	.	.	.	.	.	4ddd\	1.D_>
.	.	.	.	.	.	.	.	.	.	.	.	.	.	.	4aa\	.
.	.	.	.	.	.	.	.	.	.	.	.	.	.	.	4ddd\	.
.	.	.	.	.	.	.	.	.	.	.	.	.	.	.	4aa\	.
.	.	.	.	.	.	.	.	.	.	.	.	.	.	.	4ddd\	.
.	.	.	.	.	.	.	.	.	.	.	.	.	.	.	4fff#\	.
!	!	!	!	!LO:LB:g=original	!	!	!	!	!	!	!	!	!	!	!	!
=44	=44	=44	=44	=44	=44	=44-	=44	=44-	=44	=44-	=44	=44-	=44	=44-	=44	=44
*	*	*^	*	*^	*	*	*	*	*	*	*	*	*	*	*	*
2D/]	.	2a/]	2d\	.	2a/]	2d\	.	00.r	.	0.r	.	.	.	.	.	.	8fff#\L	2D/]
.	.	.	.	.	.	.	.	.	.	.	.	.	.	.	.	.	8eee\	.
.	.	.	.	.	.	.	.	.	.	.	.	.	.	.	.	.	8ddd\	.
.	.	.	.	.	.	.	.	.	.	.	.	.	.	.	.	.	8ccc#\J	.
2r	.	2rg	1ryy	.	2rg	1ryy	.	.	.	.	.	.	.	.	.	.	2ddd\	2r
2r	.	2dd\	.	.	2ff#\	.	.	.	.	.	.	.	.	.	.	.	2dd\	2r
!	!	!	!	!	!	!	!	!	!	!	!	!	!	!	!	!	!LO:LB:g=original	!
*	*	*v	*v	*	*	*	*	*	*	*	*	*	*	*	*	*	*	*
*	*	*	*	*v	*v	*	*	*	*	*	*	*	*	*	*	*	*
=45	=45	=45	=45	=45	=45	=45-	=45	=45-	=45	=45-	=45	=45-	=45	=45-	=45	=45
!LO:TX:b:t=Can.Ten.	!	!	!	!	!	!	!	!	!	!	!	!	!	!	!LO:TX:a:t=5	!
2A\	.	4cc#\	.	4ee\	.	.	.	.	.	.	.	.	.	.	00.r	2A\
.	.	4b\	.	4dd\	.	.	.	.	.	.	.	.	.	.	.	.
2r	.	4ee\	.	4cc#\	.	.	.	.	.	.	.	.	.	.	.	2r
.	.	4dd\	.	4b\	.	.	.	.	.	.	.	.	.	.	.	.
2r	.	4a/	.	4cc#\	.	.	.	.	.	.	.	.	.	.	.	2r
.	.	4cc#\	.	4a/	.	.	.	.	.	.	.	.	.	.	.	.
=46	=46	=46	=46	=46	=46	=46-	=46	=46	=46	=46-	=46	=46	=46	=46-	=46-	=46
!	!	!	!LO:DY:a:t=Piano	!	!LO:DY:a:t=Piano	!	!	!	!	!	!	!	!	!	!	!
2A\	.	4A/	p	4c#/	p	.	.	(>4A/	dum	0.r	.	(>4cc#\	dum	00.r	.	2A\
.	.	4B/	.	4d/	.	.	.	4B\)	.	.	.	4dd\)	.	.	.	.
2r	.	2c#/	.	2e/	.	.	.	2c#\	ia-	.	.	2ee\	ia-	.	.	2r
2r	.	2d/	.	2f#/	.	.	.	2d\	-ces	.	.	2ff#\	-ces	.	.	2r
!	!	!LO:LB:g=original	!	!	!	!	!	!	!	!	!	!	!	!	!	!
=47	=47	=47	=47	=47	=47	=47-	=47	=47	=47	=47-	=47	=47	=47	=47-	=47-	=47
2A\	.	4c#/	.	4e/	.	.	.	4c#\	in	.	.	4ee\	in	.	.	2A\
.	.	4B/	.	4d/	.	.	.	4B\	pra-	.	.	4dd\	pra-	.	.	.
!	!	!	!	!	!	!	!	!	!	!	!	!LO:SIC:v:t=custos ee	!	!	!	!
!	!	!	!	!	!	!	!	!	!	!	!	!LO:LB:g=original	!	!	!	!
2r	.	4c#/	.	4e/	.	.	.	4c#\	-se-	.	.	4ee\	-se-	.	.	2r
.	.	4B/	.	4d/	.	.	.	4B\	-pi-	.	.	4dd\	-pi-	.	.	.
2r	.	2A/	.	2c#/	.	.	.	2A/	-o	.	.	2cc#\	-o	.	.	2r
=48	=48	=48	=48	=48	=48	=48	=48	=48	=48	=48	=48	=48	=48	=48-	=48-	=48
!LO:TX:b:t=Alto Baſso	!	!	!	!	!	!	!	!	!	!	!	!	!	!	!	!
2AA/	.	4a/	.	4cc#\	.	(>4A\	vi	0.r	.	(>4c#\	vi	0.r	.	.	.	2AA/
.	.	4b/	.	4dd\	.	4B\)	.	.	.	4d\)	.	.	.	.	.	.
2r	.	2cc#\	.	2ee\	.	2c#\	les-	.	.	2e\	les-	.	.	.	.	2r
2r	.	2dd\	.	2ff#\	.	2d\	-cit	.	.	2f#\	-cit	.	.	.	.	2r
!LO:LB:g=original	!	!	!	!	!	!	!	!	!	!LO:LB:g=original	!	!	!	!	!	!LO:LB:g=original
=49	=49	=49	=49	=49	=49	=49	=49	=49-	=49	=49	=49	=49-	=49	=49-	=49-	=49
2AA/	.	4cc#\	.	4ee\	.	4c#\	al-	.	.	4e\	al-	.	.	.	1.r	2AA/
.	.	4b\	.	4dd\	.	4B\	-ta	.	.	4d\	-ta	.	.	.	.	.
2r	.	4cc#\	.	4ee\	.	4c#\	man-	.	.	4e\	man-	.	.	.	.	2r
.	.	4b\	.	4dd\	.	4B\	-si-	.	.	4d\	-si-	.	.	.	.	.
2r	.	2a/	.	2cc#\	.	2A\	-o	.	.	2c#/	-o	.	.	.	.	2r
=50	=50	=50	=50	=50	=50	=50	=50	=50	=50	=50	=50	=50	=50	=50	=50	=50
!LO:TX:b:i:t=Tutti	!	!	!LO:DY:b:t=Forte.	!	!LO:DY:b:t=Forte	!	!	!	!	!	!	!	!	!	!	!
2D/	.	(>4dd\	f	(>4ff#\	f	2D/	dum	(<4F#/	dum	(>4f#\	dum	(>4dd\	dum	4dd\	4ff#\	2D/
.	.	4ee\)	.	4gg\)	.	.	.	4G/)	.	4g\)	.	4ee\)	.	4ee\	4gg\	.
2D/	.	2ff#\	.	2aa\	.	2D/	ia-	2A/	ia-	2a\	ia-	2ff#\	ia-	2ff#\	2aa\	2D/
2G\	.	2gg\	.	2bb\	.	2G\	-ces	2B\	-ces	2b\	-ces	2gg\	-ces	2gg\	2bb\	2G\
!	!	!	!	!	!	!	!	!	!	!	!	!	!	!LO:LB:g=original	!	!
=51	=51	=51	=51	=51	=51	=51	=51	=51	=51	=51	=51	=51	=51	=51	=51	=51
1D	x 3	4ff#\	.	4aa\	.	4D/	in	4A/	in	4a\	in	4ff#\	in	4ff#\	4aa\	1D
.	2 1	4ee\	.	4gg\	.	4D/	pra-	4G/	pra-	4g\	pra-	4ee\	pra-	4ee\	4gg\	.
!	!	!	!	!	!	!	!	!LO:SIC:v:t=custos A	!	!	!	!	!	!	!	!
!	!	!	!	!	!	!LO:LB:g=original	!	!LO:LB:g=original	!	!	!	!	!	!	!	!
.	x 3	4ff#\	.	4aa\	.	4D/	se-	4A/	-se-	4a\	-se-	4ff#\	-se-	4ff#\	4aa\	.
.	2 1	4ee\	.	4gg\	.	4D/	-pi-	4G/	-pi-	4g\	-pi-	4ee\	-pi-	4ee\	4gg\	.
2D/	x 3	2dd\	.	2ff#\	.	2D/	-o-	2F#/	-o	2f#\	-o	2dd\	-o	2dd\	2ff#\	2D/
=52	=52	=52	=52	=52	=52	=52	=52	=52	=52	=52	=52	=52	=52	=52	=52	=52
2D/	.	(>4dd\	.	(>4ff#\	.	2D/	vi	(<4F#/	vi	(>4d\	vi	(<4f#/	vi	4dd\	4ff#\	2D/
.	.	4ee\)	.	4gg\)	.	.	.	4G/)	.	4e\)	.	4g/)	.	4ee\	4gg\	.
2D/	.	2ff#\	.	2aa\	.	2D/	les-	2A\	les-	2f#\	les-	2a\	les-	2ff#\	2aa\	2D/
2G\	.	2gg\	.	2bb\	.	2D/	-cit	2B\	-cit	2g\	-cit	2b\	-cit	2gg\	2bb\	2G\
=53	=53	=53	=53	=53	=53	=53	=53	=53	=53	=53	=53	=53	=53	=53	=53	=53
1D	x 3	4ff#\	.	4aa\	.	4D/	al-	4A/	al-	4f#\	al-	4a\	al-	4ff#\	4aa\	1D
.	2 1	4ee\	.	4gg\	.	4D/	-ta	4G/	-ta	4e\	-ta	4g\	-ta	4ee\	4gg\	.
!	!	!	!	!	!	!	!	!	!	!LO:LB:g=original	!	!	!	!	!	!
.	x 3	4ff#\	.	4aa\	.	4D/	man-	4A/	man-	4f#\	man-	4a\	man-	4ff#\	4aa\	.
.	2 1	4ee\	.	4gg\	.	4D/	-si-	4G/	-si-	4e\	-si-	4g\	-si-	4ee\	4gg\	.
2D/	.	2dd\	.	2ff#\	.	2D/	-o	2F#/	-o	2d\	-o	2f#/	-o,	2dd\	2ff#\	2D/
!	!	!	!	!LO:LB:g=original	!	!	!	!	!	!	!	!	!	!	!	!
=54	=54	=54	=54	=54	=54	=54	=54	=54	=54	=54	=54	=54	=54	=54	=54	=54
!LO:TX:a:t=3	!	!LO:TX:a:t=1	!	!	!	!LO:TX:a:t=1	!	!	!	!	!	!	!	!LO:TX:a:t=2	!LO:TX:a:t=3	!LO:TX:a:t=3
0.r	.	1.r	.	2.aa\	.	1.r	.	0.r	.	2.a\	man-	0.r	.	0.r	0.r	0.r
.	.	.	.	4a/	.	.	.	.	.	4A/	-si-	.	.	.	.	.
.	.	.	.	2dd\	.	.	.	.	.	2d\	-o	.	.	.	.	.
=55-	=55	=55	=55	=55	=55	=55	=55	=55-	=55	=55	=55	=55-	=55	=55-	=55-	=55-
!	!	!	!	!LO:TX:a:t=2	!	!	!	!	!	!	!	!	!	!	!	!
.	.	2.aa\	.	0.r	.	2.A\	man-	.	.	0.r	.	.	.	.	.	.
.	.	4a/	.	.	.	4AA/	-si-	.	.	.	.	.	.	.	.	.
.	.	2dd\	.	.	.	2D/	-o	.	.	.	.	.	.	.	.	.
!	!	!	!	!	!	!	!	!	!	!	!	!LO:LB:g=original	!	!	!	!
=56-	=56	=56	=56	=56-	=56	=56	=56	=56-	=56	=56-	=56	=56	=56	=56	=56-	=56-
!	!	!LO:TX:a:t=1	!	!	!	!LO:TX:a:t=1	!	!	!	!	!	!	!	!	!	!
1.r	.	1.r	.	.	.	1.r	.	1.r	.	.	.	2.aa\	man-	2.aa\	1.r	1.r
.	.	.	.	.	.	.	.	.	.	.	.	4a\	-si-	4a/	.	.
.	.	.	.	.	.	.	.	.	.	.	.	2dd\	-o	2dd\	.	.
!	!	!	!	!	!	!LO:LB:g=original	!	!	!	!	!	!	!	!	!	!
=57	=57	=57	=57	=57	=57	=57	=57	=57	=57	=57	=57	=57	=57	=57	=57	=57
2.A\	8 x	2.aa\	.	2.aa\	.	2.A\	man-	2.A/	man-	2.a\	man-	2.a\	man-	2.a/	2.aa\	2.A\
!LO:TX:b:i:t=Finis	!	!LO:TX:b:i:t=Finis	!	!LO:TX:b:i:t=Finis	!	!	!	!	!	!	!	!	!	!	!LO:TX:b:i:t=Finis	!LO:TX:b:i:t=Finis
4AA/	8 x	4a/	.	4a/	.	4AA/	-si-	4A/	-si-	4A/	-si-	4a\	-si-	4a/	4a/	4AA/
!	!	!	!	!	!	!LO:TX:a:i:t=Finis	!	!LO:TX:a:i:t=Finis	!	!LO:TX:a:i:t=Finis	!	!LO:TX:b:i:t=Finis	!	!	!	!
(<4D/	x 3:	2dd;>\	.	2dd;>\	.	2D;</	-o	2D;;/	-o	2d;>\	-o	2dd;>\	-o,	2d/	2dd;>\	4D;>/
4C#/)	.	.	.	.	.	.	.	.	.	.	.	.	.	.	.	4C#/
!	!	!LO:LB:g=original	!	!	!	!	!	!	!	!	!	!	!	!LO:LB:g=original	!LO:LB:g=original	!
=58||	=58||	=58||	=58||	=58||	=58||	=58||	=58||	=58||	=58||	=58||	=58||	=58||	=58||	=58||	=58||	=58||
!LO:TX:b:t=v. viol	!	!	!	!	!	!	!	!	!	!	!	!	!	!	!	!
!LO:TX:a:i:t=Solo	!	!	!	!	!	!	!	!	!	!	!	!	!	!LO:TX:a:t=16.	!LO:TX:a:t=16	!
2BB/	.	4dd\	.	4ff#\	.	00.r	.	0.r	.	0.r	.	00.r	.	00.r	00.r	2BB/
.	.	4cc#\	.	4ee\	.	.	.	.	.	.	.	.	.	.	.	.
2r	.	2b\	.	2dd\	.	.	.	.	.	.	.	.	.	.	.	2r
2r	.	2ee\	.	2gg\	.	.	.	.	.	.	.	.	.	.	.	2r
=59	=59	=59	=59	=59	=59	=59-	=59	=59-	=59	=59-	=59	=59-	=59	=59-	=59-	=59
2BB/	.	2.dd\	.	2.ff#\	.	.	.	.	.	.	.	.	.	.	.	2BB/
2r	.	.	.	.	.	.	.	.	.	.	.	.	.	.	.	2r
.	.	4cc#\	.	4ee\	.	.	.	.	.	.	.	.	.	.	.	.
2r	.	2b\	.	2dd\	.	.	.	.	.	.	.	.	.	.	.	2r
=60	=60	=60	=60	=60	=60	=60-	=60	=60-	=60	=60-	=60	=60-	=60	=60-	=60-	=60
1E	6 x	2.cc#\	.	2.ee\	.	.	.	1.r	.	1.r	.	.	.	.	.	1E
.	.	4b/	.	4dd\	.	.	.	.	.	.	.	.	.	.	.	.
2F#\	# x	2a#X/	.	2cc#\	.	.	.	.	.	.	.	.	.	.	.	2F#\
!	!	!	!	!	!	!	!	!LO:LB:g=original	!	!	!	!	!	!	!	!
=61	=61	=61	=61	=61	=61	=61-	=61	=61	=61	=61	=61	=61-	=61	=61-	=61-	=61
!LO:TX:b:t=Alt Ten.	!	!	!	!	!	!	!	!	!	!	!	!	!	!	!	!
2BB/	.	2b/	.	2dd\	.	.	.	(>4d\	o-	(>4f#\	o-	.	.	.	.	2BB/
.	.	.	.	.	.	.	.	4c#\)	.	4e\)	.	.	.	.	.	.
2r	.	2r	.	2r	.	.	.	2B\	-cel-	2d\	-cel-	.	.	.	.	2r
2r	.	2r	.	2r	.	.	.	2e\	-le	2g\	-le	.	.	.	.	2r
!LO:LB:g=original	!	!	!	!	!	!	!	!	!	!	!	!	!	!	!	!LO:LB:g=original
=62	=62	=62-	=62	=62-	=62	=62-	=62	=62	=62	=62	=62	=62-	=62	=62-	=62-	=62
!	!	!	!	!LO:TX:a:t=17:color=gray	!	!	!	!	!	!	!	!	!	!	!	!
2BB/	.	00.r	.	00.r	.	0.r	.	2.d\	so-	2.f#\	so-	0.r	.	00.r	00.r	2BB/
2r	.	.	.	.	.	.	.	.	.	.	.	.	.	.	.	2r
.	.	.	.	.	.	.	.	4c#\	.	4e\	.	.	.	.	.	.
2r	.	.	.	.	.	.	.	2B\	-le	2d\	-le	.	.	.	.	2r
=63	=63	=63-	=63	=63-	=63	=63-	=63	=63	=63	=63	=63	=63-	=63	=63-	=63-	=63
1E	6 x	.	.	.	.	.	.	2.c#\	cla-	2.e\	cla-	.	.	.	.	1E
.	.	.	.	.	.	.	.	4B\	-ri-	4d\	-ri-	.	.	.	.	.
2F#\	# x	.	.	.	.	.	.	2A#X/	-or	2c#/	-or	.	.	.	.	2F#\
!	!	!	!	!	!	!	!	!	!	!LO:LB:g=original	!	!	!	!	!	!
=64	=64	=64-	=64	=64-	=64	=64	=64	=64	=64	=64	=64	=64	=64	=64-	=64-	=64
!	!	!	!	!	!	!	!	!	!	!LO:TX:a:t=3	!	!	!	!	!	!
2F#\	# x	.	.	.	.	2F#\	o-	00.r	.	0.r	.	2ff#\	o-	.	.	2F#\
2G#X\	6 x	.	.	.	.	2G#X\	-cel-	.	.	.	.	2ee\	-cel-	.	.	2G#X\
2A\	5 x	.	.	.	.	2A#X\	-le	.	.	.	.	2cc#\	-le	.	.	2A#X\
=65	=65	=65-	=65	=65-	=65	=65	=65	=65-	=65	=65-	=65	=65	=65	=65-	=65-	=65
1B	.	.	.	.	.	1B	lu-	.	.	.	.	1dd	lu-	.	.	1B
2E#X\	6 5	.	.	.	.	2E#X\	-na	.	.	.	.	(>4cc#\	-na	.	.	2E\
.	.	.	.	.	.	.	.	.	.	.	.	4b\)	.	.	.	.
=66	=66	=66-	=66	=66-	=66	=66	=66	=66-	=66	=66-	=66	=66	=66	=66-	=66-	=66
1F#	#4r	00.r	.	00.r	.	2.F#\	pul-	.	.	1.r	.	2.b\	pul-	00.r	00.r	1F#
.	.	.	.	.	.	4F#\	-chri-	.	.	.	.	4a#X\	-chri-	.	.	.
2BB/	.	.	.	.	.	2BB/	-or	.	.	.	.	2b\	-or	.	.	2BB/
=67	=67	=67-	=67	=67-	=67	=67	=67	=67-	=67	=67	=67	=67	=67	=67-	=67-	=67
2BB/	.	.	.	.	.	00.r	.	.	.	2f#\	tu	00.r	.	.	.	2BB/
2r	.	.	.	.	.	.	.	.	.	2b\	qui	.	.	.	.	2r
2r	.	.	.	.	.	.	.	.	.	2a\	vi-	.	.	.	.	2r
=68	=68	=68-	=68	=68-	=68	=68-	=68	=68	=68	=68	=68	=68-	=68	=68-	=68-	=68
!LO:TX:b:t=Alt Ten	!	!	!	!	!	!	!	!	!	!	!	!	!	!	!	!
1.E	8 x	.	.	.	.	.	.	2B\	tu	1g	-des	.	.	.	.	1.E
.	7 x	.	.	.	.	.	.	2e\	qui	.	.	.	.	.	.	.
.	.	.	.	.	.	.	.	2d\	vi-	2g\	abs-	.	.	.	.	.
=69	=69	=69-	=69	=69-	=69	=69-	=69	=69	=69	=69	=69	=69-	=69	=69-	=69-	=69
1A	7 x	.	.	.	.	.	.	1c#	-des	1e	-con-	.	.	.	.	1A
2D/	.	.	.	.	.	.	.	2d\	abs-	2f#\	.	.	.	.	.	2D/
!	!	!	!	!	!	!	!	!LO:LB:g=original	!	!	!	!	!	!	!	!
=70	=70	=70-	=70	=70-	=70	=70-	=70	=70	=70	=70	=70	=70-	=70	=70-	=70-	=70
1A	.	00.r	.	00.r	.	.	.	2.c#\	-con-	2.e\	.	.	.	00.r	00.r	1A
.	.	.	.	.	.	.	.	4c#\	-di-	4e\	-di-	.	.	.	.	.
2A\	.	.	.	.	.	.	.	2c#\	-ta	2e\	-ta	.	.	.	.	2A\
=71	=71	=71-	=71	=71-	=71	=71	=71	=71	=71	=71	=71	=71-	=71	=71-	=71-	=71
!LO:TX:b:t=Bas	!	!	!	!	!	!	!	!	!	!	!	!	!	!	!	!
1.AA	x 3	.	.	.	.	2A\	cor-	00.r	.	0.r	.	1.r	.	.	.	1.AA
!	!	!	!	!	!	!LO:SIC:v:t=custos E	!	!	!	!	!	!	!	!	!	!
!	!	!	!	!	!	!LO:LB:g=original	!	!	!	!	!	!	!	!	!	!
.	7 x	.	.	.	.	2E\	-dis	.	.	.	.	.	.	.	.	.
.	.	.	.	.	.	2G\	la-	.	.	.	.	.	.	.	.	.
=72	=72	=72-	=72	=72-	=72	=72	=72	=72-	=72	=72-	=72	=72	=72	=72-	=72-	=72
!LO:TX:b:t=Canto	!	!	!	!	!	!	!	!	!	!	!	!	!	!	!	!
1.D	x 4	.	.	.	.	2G\	-tens	.	.	.	.	2dd\	cor-	.	.	1.D
.	x 3	.	.	.	.	2F#\	cor	.	.	.	.	2a\	-dis	.	.	.
.	n7 x	.	.	.	.	2F#\	ex-	.	.	.	.	2ccn\	las-	.	.	.
!	!	!	!	!	!	!	!	!	!	!	!	!LO:LB:g=original	!	!	!	!
=73	=73	=73-	=73	=73-	=73	=73	=73	=73-	=73	=73	=73	=73	=73	=73-	=73-	=73
!LO:TX:b:t=Alto	!	!	!	!	!	!	!	!	!	!	!	!	!	!	!	!
1G	9 x	.	.	.	.	1G	.	.	.	2a\	cor-	1b	-tens	.	.	1G
.	.	.	.	.	.	.	.	.	.	2d\	-dis	.	.	.	.	.
4BB/	6 x	.	.	.	.	4BB/	.	.	.	2g\	la-	2b\	cor	.	.	4BB/
4Cn/	.	.	.	.	.	4Cn/	.	.	.	.	.	.	.	.	.	4Cn/
!	!	!	!	!	!	!	!	!	!	!	!	!	!	!	!	!LO:LB:g=original
=74	=74	=74-	=74	=74-	=74	=74	=74	=74-	=74	=74	=74	=74	=74	=74	=74	=74
!	!	!	!	!	!	!	!	!	!	!	!	!	!	!LO:TX:a:t=5.	!LO:TX:a:t=5	!
1D	n7 x	00.r	.	00.r	.	1D	.	.	.	1f#	-tens	1ccn	ex-	00.r	00.r	1D
2GG/	.	.	.	.	.	2G\	.	.	.	2g\	cor	2b\	.	.	.	2GG/
!LO:LB:g=original	!	!	!	!	!	!	!	!	!	!LO:LB:g=original	!	!	!	!	!	!
=75	=75	=75-	=75	=75-	=75	=75	=75	=75	=75	=75	=75	=75	=75	=75-	=75-	=75
!LO:TX:b:t=Ten.	!	!	!	!	!	!	!	!	!	!	!	!	!	!	!	!
1D	x 4	.	.	.	.	2.D/	.	2A/	cor-	2.f#\	ex-	2.a\	.	.	.	1D
.	x 3	.	.	.	.	.	.	2D/	-dis	.	.	.	.	.	.	.
.	.	.	.	.	.	4D/	-ci-	.	.	4g\	-ci-	4g/	-ci-	.	.	.
2GG/	.	.	.	.	.	2GG/	-ta	2B\	la-	2g\	-ta	2g/	-ta	.	.	2GG/
=76	=76	=76-	=76	=76-	=76	=76	=76	=76	=76	=76	=76	=76	=76	=76-	=76-	=76
!	!	!	!	!	!	!LO:TX:a:t=1	!	!	!	!	!	!	!	!	!	!
1.E	.	.	.	.	.	1.r	.	1G	-tens	1.r	.	2ee\	cor-	.	.	1.E
.	.	.	.	.	.	.	.	.	.	.	.	2b\	-dis	.	.	.
.	.	.	.	.	.	.	.	2G/	cor	.	.	2ee\	la-	.	.	.
=77	=77	=77-	=77	=77-	=77	=77-	=77	=77	=77	=77	=77	=77	=77	=77-	=77-	=77
1F#	7 #	.	.	.	.	2r	.	1A#X	ex-	2c#/	La-	1ee	-tens	.	.	1F#
.	.	.	.	.	.	2r	.	.	.	2c#/	-tens	.	.	.	.	.
4D\	6 x	.	.	.	.	(>4D\	cor	2B\	.	2d\	cor	2dd\	cor	.	.	4D\
4E\	.	.	.	.	.	4E\)	.	.	.	.	.	.	.	.	.	4E\
!	!	!	!	!	!	!LO:LB:g=original	!	!	!	!	!	!	!	!	!	!
=78	=78	=78-	=78	=78-	=78	=78	=78	=78	=78	=78	=78	=78	=78	=78-	=78-	=78
!	!	!LO:TX:a:i:t=Da Capo	!	!LO:TX:a:i:t=Da Capo	!	!	!	!	!	!	!	!	!	!LO:TX:a:i:t=Da Capo	!LO:TX:a:i:t=Da Capo	!
1F#	x #4r	1.r	.	1.r	.	2.F#\	ex-	2.A#X/	.	2.f#\	ex-	2.cc#\	ex-	1.r	1.r	1F#
.	.	.	.	.	.	4F#\	-ci-	4B\	-ci-	4f#\	-ci-	4b\	-ci-	.	.	.
!LO:TX:a:i:t=Da Capo	!	!LO:TX:b:t=Autho&colon; P.F.A.P.\nKobier&colon;	!	!LO:TX:b:t=Autho.\nP.F.A.P.\nKobier&colon;	!	!LO:TX:a:i:t=Da Capo	!	!LO:TX:b:i:t=Da Capo	!	!LO:TX:a:i:t=Da Capo	!	!LO:TX:a:i:t=Da Capo	!	!	!LO:TX:t=Autho&colon; P.F.A.P. Kobier.	!LO:TX:a:i:t=Da Capo
!LO:TX:b:t=Autho. P.F.A.P.\nKobier&colon;	!	!	!	!	!	!	!	!	!	!	!	!	!	!	!	!
2BB/	.	.	.	.	.	2BB/	-ta	2B\	-ta	2f#\	-ta	2b\	-ta	.	.	2BB/
==	==	==	==	==	==	==	==	==	==	==	==	==	==	==	==	==
*-	*-	*-	*-	*-	*-	*-	*-	*-	*-	*-	*-	*-	*-	*-	*-	*-
!!!system-decoration: g1[(g2)][(g3)][(g4)]g5
!!!RDF**kern: > = above
!!!RDF**kern: < = below
!!!AIN: 1 alto 1 bass 1 fagot 1 organ 1 soprn 1 tenor 2 tromp 2 violn
!!!ENC: Tomasz Grochalski
!!!END: 2020-07-22
!!!EED: Jędrzej Mróz
!!!EST: 2021-12-28
